!!!!SEGMENT: pl-kk--kk-i-8--012_anonim--dulcis-mater.krn
!!!cenid: 16xx:1153
!!!COM: Anonim
!!!COM-rism: pe30004985
!!!CDT:
!!!CNT:
!!!OTL: Dulcis Mater
!!!PDT:
!!!AGN: Sacred
!!!SMS-siglum: PL-Kk
!!!SMS-shelfmark: Kk.I.8
!!!NIFC-rismID: 1001148537
!!!URL-scan: http://repozytorium.nifc.pl/skany/pl-kk-nut--i-8
!!!ONB-nifc: UWAGA: A (skan 0008, s.6r), T1 (0032, s.7r), T2 (0055, s.6r), B (0078, s.6r). Następny utwór: Martyr Dei
!!!SMS-variant:
!!!SMS-altvar:
**kern	**text	**text	**text	**kern	**text	**text	**text	**kern	**text	**text	**text	**kern	**text	**text	**text
*part4	*part4	*part4	*part4	*part3	*part3	*part3	*part3	*part2	*part2	*part2	*part2	*part1	*part1	*part1	*part1
*staff4	*staff4	*staff4	*staff4	*staff3	*staff3	*staff3	*staff3	*staff2	*staff2	*staff2	*staff2	*staff1	*staff1	*staff1	*staff1
*I"[Bassus.]	*	*	*	*I"[Tenor 2dus.]	*	*	*	*I"[Tenore 1mo]	*	*	*	*I"[alto.]	*	*	*
*I'B.	*	*	*	*I'T. II	*	*	*	*I'T I	*	*	*	*I'A	*	*	*
*clefF4	*	*	*	*clefC4	*	*	*	*clefC4	*	*	*	*clefC3	*	*	*
*k[b-]	*	*	*	*k[b-]	*	*	*	*k[b-]	*	*	*	*k[b-]	*	*	*
*M4/4	*	*	*	*M4/4	*	*	*	*M4/4	*	*	*	*M2/2	*	*	*
*met(c)	*	*	*	*met(c)	*	*	*	*met(c)	*	*	*	*met(c|)	*	*	*
=1	=1	=1	=1	=1	=1	=1	=1	=1	=1	=1	=1	=1	=1	=1	=1
4r	.	.	.	4r	.	.	.	4r	.	.	.	4r	.	.	.
!LO:TX:a:t=P:problem:all\right:global	!	!	!	!LO:TX:a:t=P:problem:all\right:global	!	!	!	!LO:TX:a:t=P:problem:all\right:global	!	!	!	!	!	!	!
8G\	-1 Dul-	3 Te	-7 Do-	8d\	-1 Dul-	3 Te	-7 Do-	8B-\	-1 Dul-	3 Te	7 Do-	8g\	-1 Dul-	3 Te	-7 Do-
8G\	-cis	fau-	-na	8d\	-cis	fau-	-na	8B-\	-cis	fau-	-na	8g\	-ciſ	fau-	-na
8G\	ma-	-tri-	pa-	8d\	Ma-	-tri-	pa-	8B-\	Ma-	-tri-	pa-	8g\	Ma-	-tri-	pa-
8G\	-ter	-ce	-rens	8d\	-ter	-ce	-rens	8B-\	-ter	-ce	-rens	8g\	-ter	-ce	-renſ
8E-X\	Cre-	cun-	mi-	8c\	Cre-	cun-	mi-	8B-\	Cre-	cun-	mi-	8g\	Cre-	Cun-	mi-
8E-\	-a-	-cta	-hi	8c\	-a-	-cta	-hi	8B-\	-a-	-cta	-hi	8g\	-a-	-cta	-hi
=2	=2	=2	=2	=2	=2	=2	=2	=2	=2	=2	=2	=2	=2	=2	=2
*2\right	*	*	*	*2\right	*	*	*	*	*	*	*	*	*	*	*
2F\	-to-	creſ-	veſ-	2c\	-to-	creſ-	veſ-	(4B-\	-to-	creſ-	veſ-	2f\	-to-	Creſ-	veſ-
.	.	.	.	.	.	.	.	4A\)	.	.	.	.	.	.	.
4BB-,</	-ris	-cu(n)t	-tem	4B-\	-ris	-cunt	-tem	4B-\	-ris	-cu(n)t	-tem	4f\	-ris	-cunt	-t(em)
8B-\	Ma-	ſi-	in-	8B-\	Ma-	ſi-	in-	8d\	Ma-	ſi-	in-	8f\	Ma-	Si-	in-
8B-\	-ter	-ne	-no-	8B-\	-ter	-ne	-no-	8d\	-ter	-ne	-no-	8f\	-ter	-ne-	-no-
=3	=3	=3	=3	=3	=3	=3	=3	=3	=3	=3	=3	=3	=3	=3	=3
8B-\	pi-	te	-cen-	8B-\	pi-	te	-cen-	8d\	pi-	te	-cen-	8f\	pi-	-te	-cen-
8B-\	-a	om-	-te(m)	8B-\	-a	om-	-te(m)	8d\	-a	om-	-tem	8f\	-a	o-	-te(m)
8G\	Sal-	-nes	cae-	8B-\	Sal-	-nes	cae-	8d\	Sal-	-nes	cae-	8f\	Sal-	-(mn)es	cae-
!LO:SIC:v:l:s=-va-:verse1	!	!	!	!LO:SIC:v:l:s=-va-:verse1	!	!	!	!LO:SIC:v:l:s=-va-:verse1	!	!	!	!	!	!	!
8G\	-ua-	de-	-li	8B-\	-ua-	de-	-li	8d\	-ua-	de-	-li	8e\	-va-	de-	-li
2A\	-to-	-creſ-	teſ-	2A\	-to-	-creſ-	teſ-	4d\	-to-	-creſ-	teſ-	2e\	-to-	-creſ-	teſ-
.	.	.	.	.	.	.	.	4c#X\	.	.	.	.	.	.	.
=4	=4	=4	=4	=4	=4	=4	=4	=4	=4	=4	=4	=4	=4	=4	=4
*	*	*	*	*	*	*	*	*2\right	*	*	*	*	*	*	*
2D/	-ris	-cunt	-tem	4A\	-ris	-cunt	-tem	2d\	-ris	-cunt	-tem	4d\	-riſ	-cunt	-te(m)
.	.	.	.	4.d\	reſ-	ad	al-	.	.	.	.	4.f\	reſ-	ad	al-
4.G\	reſ-	ad	al-	.	.	.	.	4.B-\	reſ-	ad	al-	.	.	.	.
.	.	.	.	8c\	-pi-	.	.	.	.	.	.	8e\	-pi-	.	.
.	.	.	.	4B-\	-ce	sis	-bam	.	.	.	.	4d\	-ce	sis	-ba(m)
8F\	-pi-	.	.	.	.	.	.	8A\	-pi-	.	.	.	.	.	.
=5	=5	=5	=5	=5	=5	=5	=5	=5	=5	=5	=5	=5	=5	=5	=5
*	*	*	*	*	*ij	*	*	*	*	*	*	*	*	*	*
4E-X\	-ce	sis	-bam	4.c\	reſ-	pi-	at-	4G/	-ce	ſis	-bam	4.e\	rêſ-	pi-	at-
*	*ij	*	*	*	*	*	*	*	*ij	*	*ij	*	*	*	*
4.F\	reſ-	pi-	at-	.	.	.	.	4.A/	reſ-	pi-	al-	.	.	.	.
.	.	.	.	8B-\	-pi-	-a	.	.	.	.	.	8d\	-pi-	-a	-q(ue)-
*	*	*	*	*	*	*ij	*	*	*	*	*	*	*	*	*
.	.	.	.	4A\	-ce	pi-	-q(ue)-	.	.	.	.	8c\	.	.	.
*	*	*	*	*	*Xij	*	*	*	*	*	*	*	*	*ij	*
!LO:TX:a:t=P:problem:♭ above	!	!	!	!	!	!	!	!	!	!	!	!	!	!	!
8E-X\	-pi-	-a	.	.	.	.	.	8G/	-pi-	.	.	8d\	ce	-pi-	.
*	*	*ij	*	*	*	*	*	*	*	*	*	*	*	*	*
4D\	-ce	pi-	-q(ue)	2B-,<\	pec-	-a	-ni-	4F/	-ce	-a	-bam	2c/	pec-	-a	-vi-
*	*Xij	*	*	*	*	*Xij	*	*	*Xij	*	*Xij	*	*	*Xij	*
=6-	=6	=6	=6	=6-	=6	=6	=6	=6	=6	=6	=6	=6-	=6	=6	=6
*	*	*	*	*	*	*	*	*	*	*ij	*	*	*	*	*
4E-X/	pec-	-a	ni-	.	.	.	.	4.G/	pec-	pi-	at-	.	.	.	.
*	*	*Xij	*	*	*	*	*	*	*	*	*	*	*	*	*
4C/	-ca-	Ma-	.	4A\	-ca-	Ma-	.	.	.	.	.	4B-/	-Ca-	Ma-	-ni-
.	.	.	.	.	.	.	.	8G/	-ca-	-a	-q(ue)-	.	.	.	.
*	*	*	*	*	*	*	*	*	*	*Xij	*	*	*	*	*
2D/	-to-	-ri-	-ti-	2A\	-to-	-ri-	-ti-	4G/	-to-	Ma-	-ni-	2A/	-to-	-ri-	-ti-
.	.	.	.	.	.	.	.	4F#X/	.	-ri-	-ti-	.	.	.	.
=7	=7	=7	=7	=7	=7	=7	=7	=7	=7	=7	=7	=7	=7	=7	=7
1GG;	-res	-a	-dam	1G;	-res	-a	-d(am)	1G;<	-res	-a	-dam	1G	-res	-a	-d(am)
!LO:LB:g=original	!	!	!	!LO:LB:g=original	!	!	!	!LO:LB:g=original	!	!	!	!LO:LB:g=original	!	!	!
=8	=8	=8	=8	=||8	=8	=8	=8	=8	=8	=8	=8	=8	=8	=8	=8
2.G\	2 Ad	4 E-	.	2.B-\	2 Ad	4 E-	.	2.d\	2 Ad	4 E-	.	2.g\	2. Ad	4. E-	.
4G\	te	-mo-	.	4B-\	te	-mo-	.	4d\	te	-mo-	.	4g\	te	-mo-	.
=9	=9	=9	=9	=9	=9	=9	=9	=9	=9	=9	=9	=9	=9	=9	=9
4.E-X\	cla-	-ri-	.	4.B-\	cla-	-ri-	.	4.e-X\	cla-	-ri-	.	4g\	Cla-	-ri-	.
.	.	.	.	.	.	.	.	.	.	.	.	4g\	-mant	-t(ur)	.
8E-\	-mant	-tur	.	8B-\	-mant	-tur	.	8e-\	-ma(n)t	-tur	.	.	.	.	.
4E-\	et	Cre-	.	4B-\	et	Cre-	.	4B-\	et	Cre-	.	4g\	et	Cre-	.
4D\	su-	-a-	.	4B-\	ſu-	-a-	.	4d\	ſu-	-a-	.	4f\	suſ-	-a-	.
=10	=10	=10	=10	=10	=10	=10	=10	=10	=10	=10	=10	=10	=10	=10	=10
2F\	-spi-	-tu-	.	2A\	-ſpi-	-tu-	.	2c\	-ſpi-	-tu-	.	2f\	-pi-	-tu-	.
4F\	-ra(n)t	-ra	.	4A\	-ra(n)t	-ra	.	4c\	-ra(n)t	-ra	.	4f\	-rat	-ra	.
8D\	si-	ſte-	.	8A\	ſi	ſte-	.	8d\	ſi-	ſte-	.	8f\	ſi-	ſte-	.
8D\	-non	-ri-	.	8A\	non	-ri-	.	8d\	-non	-ri-	.	8a\	-n(on)	-ri-	.
=11	=11	=11	=11	=11	=11	=11	=11	=11	=11	=11	=11	=11	=11	=11	=11
4.G\	ad	-lis	.	4.B-\	ad-	-lis	.	4.d\	ad	-lis	.	4g\	ad	-lis	.
.	.	.	.	.	.	.	.	.	.	.	.	4g\	ſi-	fit	.
8G\	si-	fit	.	8B-\	-ſi-	fit	.	8d\	ſi-	fit	.	.	.	.	.
4G\	-si-	et	.	4G/	-si-	et	.	4B-\	-si-	et	.	4d\	-si-	et	.
4F\	-a(m)	na-	.	4A/	-a(m)	na-	.	4d\	-am	na-	.	4f\	-a(m)	Na-	.
=12	=12	=12	=12	=12	=12	=12	=12	=12	=12	=12	=12	=12	=12	=12	=12
2A\	ex-	-tu-	.	2A/	ex-	-tu-	.	4d\	ex-	-tu-	.	2e\	ex-	-tu-	.
.	.	.	.	.	.	.	.	4c#X\	-pi-	.	.	.	.	.	.
4D\	-pi-	-ra	.	4A\	-pi-	-ra	.	4d\	-rant	-ra	.	4d\	-pi-	-ra	.
8D\	-ra(n)t	ab-	.	8A\	-rant	ab-	.	8d\	fo-	ab-	.	8f\	.	.	.
8D\	fo-	-s(qe)	.	8A\	et	-s(que)	.	8d\	-ve	-sq(ue)	.	8f\	-rant	ab-	.
=13	=13	=13	=13	=13-	=13	=13	=13	=13	=13	=13	=13	=13	=13	=13	=13
!LO:SIC:v:l:s=-ve:verse1	!	!	!	!	!	!	!	!	!	!	!	!	!	!	!
!LO:N:acc=#	!	!	!	!	!	!	!	!	!	!	!	!	!	!	!
(8EnX\	-ue	te	.	8G/	fo-	te	.	(8cny\	tu-	te	.	8e\	Fo-	-ſq(ue)	.
*	*	*ij	*	*	*	*ij	*	*	*	*ij	*	*	*	*	*
!	!	!	!	!LO:SIC:v:l:s=-ve:verse1	!	!	!	!	!	!	!	!	!	!	!
8E\)	tu-	ab-	.	8G/	-ue	ab-	.	8c\)	.	et	.	8e\	-ve	Te	.
8E\	-os	-s(que)	.	8G/	tu-	-s(que)	.	8c\	-os	na-	.	8g\	tu-	ab-	.
*	*ij	*	*	*	*	*	*	*	*ij	*	*	*	*	*	*
8E\	tu-	te	.	8c\	-os	te	.	8c\	fo-	-tu-	.	8g\	-os	-s(que)	.
*	*	*Xij	*	*	*ij	*Xij	*	*	*	*	*	*	*ij	*	*
2F#\	-os	o	.	2A\	tu-	O	.	4c\	-ve	-ra	.	2f\	tu-	Te	.
*	*Xij	*	*	*	*	*	*	*	*	*	*	*	*	*	*
.	.	.	.	.	.	.	.	8d\	tu-	ab-	.	.	.	.	.
.	.	.	.	.	.	.	.	8c\	-os	-sq(ue)	.	.	.	.	.
*	*	*	*	*	*	*	*	*	*Xij	*	*	*	*	*	*
=14	=14	=14	=14	=14	=14	=14	=14	=14	=14	=14	=14	=14	=14	=14	=14
4.G\	cul-	Ma-	.	4.G/	-os	Ma-	.	4.B-\	cul-	te	.	4d\	-os	O	.
*	*	*	*	*	*Xij	*	*	*	*	*Xij	*	*	*Xij	*	*
.	.	.	.	.	.	.	.	.	.	.	.	4g\	cul-	Ma-	.
!LO:TX:a:t=P:problem:♭ above	!	!	!	!	!	!	!	!LO:TX:a:t=P:problem:♭ above	!	!	!	!	!	!	!
8E-X\	.	.	.	8B-/	cul-	.	.	8e-X\	.	O	.	.	.	.	.
(4C/	-to-	-ri-	.	2A/	-to-	-ri-	.	4e-\	-to-	Ma-	.	4.g\	-to-	-ri-	.
4D/)	.	.	.	.	.	.	.	4d\	.	-ri-	.	.	.	.	.
.	.	.	.	.	.	.	.	.	.	.	.	8f\	.	.	.
=15	=15	=15	=15	=15	=15	=15	=15	=15	=15	=15	=15	=15	=15	=15	=15
!	!	!	!	!LO:N:acc=#	!	!	!	!	!	!	!	!	!	!	!
1GG;	-res	-a	.	1Bn	-res	-a	.	1d;<	-res	-a	.	1g	-res	-a	.
!LO:LB:g=original	!	!	!	!LO:LB:g=original	!	!	!	!LO:LB:g=original	!	!	!	!LO:LB:g=original	!	!	!
=16-	=16	=16	=16	=16	=16	=16	=16	=16	=16	=16	=16	=16	=16	=16	=16
4r	.	.	.	4r	.	.	.	4r	.	.	.	4r	.	.	.
2G\	5 Tu-	6 O-	.	2B-\	5 Tu-	6 O-	.	2d\	5 Tu-	6 O-	.	2g\	5. Tu-	6. O-	.
8G\	-a	-ro	.	8B-\	-a	-ro	.	8d\	-a	-ro	.	8g\	-a	-ro	.
8G\	mi-	Ma-	.	8B-\	mi-	Ma-	.	8d\	mi-	ma-	.	8g\	mi-	Ma-	.
=17	=17	=17	=17	=17	=17	=17	=17	=17	=17	=17	=17	=17	=17	=17	=17
4C/	-ſe-	-ter	.	4c\	-ſe-	-ter	.	4e-X\	-ſe-	-ter	.	4g\	-ſe-	-ter	.
!LO:N:acc=#	!	!	!	!	!	!	!	!	!	!	!	!	!	!	!
4BBn/	-ri-	cle-	.	4d\	-ri-	cle-	.	4d\	-ri-	cle-	.	4g\	-ri-	Cle-	.
4.C/	-cor-	-men-	.	8d\	-cor-	-men-	.	4.e-\	-cor-	-men-	.	4.g\	-cor-	-men-	.
.	.	.	.	16c\LL	.	.	.	.	.	.	.	.	.	.	.
.	.	.	.	16B-\JJ	.	.	.	.	.	.	.	.	.	.	.
.	.	.	.	8.c\	.	.	.	.	.	.	.	.	.	.	.
8C/	-di-	-ti-	.	.	.	.	.	8e-\	-di-	-ti-	.	8g\	-di-	-ti-	.
.	.	.	.	16c\	-di-	-ti-	.	.	.	.	.	.	.	.	.
=18	=18	=18	=18	=18	=18	=18	=18	=18	=18	=18	=18	=18	=18	=18	=18
2G\	-a	-ae	.	2B-\	-a	-ae	.	2d\	-a	-ae	.	2g\	-a	-a	.
4r	.	.	.	4r	.	.	.	4r	.	.	.	4r	.	.	.
*	*ij	*ij	*	*	*ij	*ij	*	*	*ij	*ij	*	*	*ij	*ij	*
2D/	Tu-	O-	.	2A\	Tu-	O-	.	2d\	Tu-	O-	.	2f\	Tu-	O-	.
=19-	=19	=19	=19	=19-	=19	=19	=19	=19-	=19	=19	=19	=19-	=19	=19	=19
.	.	.	.	.	.	.	.	.	.	.	.	.	.	.	.
8D/	-a	-ro	.	8A\	-a	-ro	.	8d\	-a	-ro	.	8f\	-a	-ro	.
8D/	mi-	cle-	.	8A\	mi-	Ma-	.	8d\	mi-	ma-	.	8f\	mi-	Ma-	.
!	!	!	!	!	!	!	!	!LO:TX:a:t=P:problem:# above	!	!	!	!	!	!	!
!	!	!	!	!	!	!	!	!LO:N:acc=#	!	!	!	!	!	!	!
4C#X/	-ſe-	-men-	.	4A/	-ſe-	-ter	.	4enX\	-ſe-	-ter	.	4e\	-ſe-	-ter	.
4C#/	-ri-	-ti-	.	4A/	-ri-	Cle-	.	4e\	-ri-	cle-	.	4a\	-ri-	Cle-	.
=20	=20	=20	=20	=20	=20	=20	=20	=20	=20	=20	=20	=20	=20	=20	=20
2.D/	-cor-	-ae	.	2.A/	-cor-	-men-	.	4e\	-cor-	-men-	.	2.f\	-cor-	-men-	.
*	*	*Xij	*	*	*	*	*	*	*	*	*	*	*	*	*
.	.	.	.	.	.	.	.	8d\L	.	.	.	.	.	.	.
!	!	!	!	!	!	!	!	!LO:TX:a:t=P:problem:# above	!	!	!	!	!	!	!
.	.	.	.	.	.	.	.	8c#X\J	.	.	.	.	.	.	.
.	.	.	.	.	.	.	.	4.d\	.	.	.	.	.	.	.
4D/	-di-	im-	.	4A/	-di-	-ti-	.	.	.	.	.	4f\	-di-	-ti-	.
.	.	.	.	.	.	.	.	8d\	-di-	-ti-	.	.	.	.	.
=21	=21	=21	=21	=21	=21	=21	=21	=21	=21	=21	=21	=21	=21	=21	=21
4AA/	-a	-pe-	.	2A/	-a	-a	.	(4c#\	-a	-ae	.	4e\	-a	-a	.
*	*Xij	*	*	*	*Xij	*Xij	*	*	*Xij	*Xij	*	*	*Xij	*Xij	*
4A\	Re-	.	.	.	.	.	.	4c#\	Re-	im-	.	4e\	re-	im-	.
(4F#X\	.	.	.	4r	.	.	.	4d\)	-gnum	-pe-	.	4f\	-gn(um)	-pe-	.
4F#\)	-gnum	-tres	.	4d\	Re-	im-	.	4A\	.	-tres	.	4a\	.	.	.
=22	=22	=22	=22	=22	=22	=22	=22	=22	=22	=22	=22	=22	=22	=22	=22
2.G\	et	mi-	.	4.d\	-gn(um)	-pe-	.	2.B-\	et	mi-	.	4d\	et	-tres	.
.	.	.	.	.	.	.	.	.	.	.	.	4d\	cle-	mi-	.
.	.	.	.	8d\	et	-treſ	.	.	.	.	.	.	.	.	.
.	.	.	.	4d\	cle-	mi-	.	.	.	.	.	2.g\	.	-hi	.
4G\	cle-	-hi	.	4B-\	.	-hi	.	4e\	cle-	-hi	.	.	.	.	.
=23	=23	=23	=23	=23	=23	=23	=23	=23	=23	=23	=23	=23-	=23	=23	=23
2.A\	-men-	ve-	.	2.A/	-men-	ve-	.	4c#X\	-men-	ve-	.	.	.	.	.
.	.	.	.	.	.	.	.	2d\	-ti-	.	.	4f\	.	.	.
.	.	.	.	.	.	.	.	.	.	.	.	4.e\	-men-	Ve-	.
!	!	!	!	!	!	!	!	!LO:TX:a:t=P:problem:# above	!	!	!	!	!	!	!
4A\	-ti-	-nid	.	4A/	-ti-	-ni-	.	4c#X\	.	-ni-	.	.	.	.	.
.	.	.	.	.	.	.	.	.	.	.	.	8e\	-ti-	-ni-	.
=	=	=	=	=	=	=	=	=	=	=	=	=	=	=	=
4D/	-a	do-	.	2A/	-a	-ae	.	2d\	-a	-ae	.	4f\	-a	-ae	.
8D/	in-	-n(um)	.	.	.	.	.	.	.	.	.	8f\	in-	do-	.
8C/	-fer-	.	.	.	.	.	.	.	.	.	.	8e\	-fe-	-n(um)	.
!	!	!	!	!	!	!	!	!	!	!	!	!LO:LB:g=original	!	!	!
=-	=-	=-	=-	=-	=-	=-	=-	=-	=-	=-	=-	=-	=-	=-	=-
[y2BB-/	-ro-	ca-	.	4r	.	.	.	4r	.	.	.	2d\	-ro-	et	.
.	.	.	.	8B-\	in	do-	.	8d\	in-	do-	.	.	.	.	.
.	.	.	.	8A\	fe-	.	.	8c\	-fe-	-num	.	.	.	.	.
=24	=24	=24	=24	=24	=24	=24	=24	=24	=24	=24	=24	=24	=24	=24	=24
!LO:N:xstem:cue	!	!	!	!	!	!	!	!	!	!	!	!	!	!	!
4BB-/]	.	.	.	4F/	-ro-	-num	.	4.B-\	-ro-	ca-	.	4d\	-r(um)	Ca-	.
(8BB-/	-rum	-ſti-	.	2B-\	.	ca-	.	.	.	.	.	8g\	in-	.	.
8BB-/)	.	.	.	.	.	.	.	8A/	.	.	.	8f\	-fe-	.	.
[y2C/	do	-mo-	.	.	.	.	.	4G/	.	-ſti-	.	4e\	-ro-	.	.
.	.	.	.	4A/	-rum	-ſti-	.	(8A/	-rum	-mo-	.	4f\	-r(um)	-ſti-	.
.	.	.	.	.	.	.	.	8B-/)	.	.	.	.	.	.	.
=25	=25	=25	=25	=25	=25	=25	=25	=25	=25	=25	=25	=25	=25	=25	=25
!LO:N:xstem:cue	!	!	!	!	!	!	!	!	!	!	!	!	!	!	!
4C/]	.	.	.	4.G/	do-	-mo-	.	4.c\	do-	.	.	4.f\	do-	-mo-	.
4C/	mu-	-ni-	.	.	.	.	.	.	.	.	.	.	.	.	.
.	.	.	.	8G/	-mu-	-ni-	.	8c\	-mu-	-ni-	.	8e\	-mu-	-ni-	.
4FF/	-it	-ae	.	4A/	-it	-ae	.	2c\	-it	-ae	.	2f\	-it	-ae	.
*	*ij	*ij	*	*	*	*ij	*	*	*	*	*	*	*	*	*
8F\	in-	do-	.	8A/	in-	do-	.	.	.	.	.	.	.	.	.
8E-X\	.	.	.	8G/	-fe-	.	.	.	.	.	.	.	.	.	.
=26	=26	=26	=26	=26	=26	=26	=26	=26	=26	=26	=26	=26	=26	=26	=26
2D/	-fe-	-num	.	2F#X/	-ro-	-num	.	4r	.	.	.	2re	.	.	.
*	*	*	*	*	*	*	*	*	*ij	*ij	*	*	*	*	*
.	.	.	.	.	.	.	.	8d\	in-	do-	.	.	.	.	.
.	.	.	.	.	.	.	.	8c\	-fe-	-num	.	.	.	.	.
4E-\	-ro-	.	.	[2G/	.	.	.	2B-\	-ro-	ca-	.	4.g\	in-	do-	.
8E-\	-rum	ca-	.	.	.	.	.	.	.	.	.	.	.	.	.
8D\	.	.	.	.	.	.	.	.	.	.	.	8f\	-fe-	.	.
=27	=27	=27	=27	=27	=27	=27	=27	=27	=27	=27	=27	=27	=27	=27	=27
!	!	!	!	!LO:N:xstem:cue	!	!	!	!LO:N:vis=1.	!	!	!	!	!	!	!
2.C/	do-	.	.	4G/]	.	.	.	[y1c	.	-ſti-	.	2.e-X\	-ro-	-n(um)	.
.	.	.	.	4G/	-rum	ca-	.	.	.	.	.	.	.	.	.
*	*	*	*	*	*ij	*	*	*	*	*	*	*	*	*	*
.	.	.	.	4.A/	in-	-ſti-	.	.	.	.	.	.	.	.	.
8C/	-mu-	-ſti-	.	.	.	.	.	.	.	.	.	4e-\	-r(um)	ca-	.
8C/	-it	-mo-	.	8G/	-fe-	.	.	.	.	.	.	.	.	.	.
*	*Xij	*	*	*	*	*	*	*	*	*	*	*	*	*	*
=28	=28	=28	=28	=28	=28	=28	=28	=28-	=28	=28	=28	=28	=28	=28	=28
2.D/	do-	.	.	4F#X/	-ro-	.	.	4cyy]	.	.	.	8d\	do-	.	.
.	.	.	.	.	.	.	.	.	.	.	.	8c\	.	.	.
.	.	.	.	4G/	-rum	.	.	8B-\	-rum	.	.	4g\	.	-ſti-	.
*	*	*	*	*	*Xij	*	*	*	*	*	*	*	*	*	*
.	.	.	.	.	.	.	.	8A\	.	.	.	.	.	.	.
.	.	.	.	4.d\	do-	-mo-	.	4.A/	do-	-mo-	.	4.g\	-nu-	-mo-	.
4D/	-mu-	-ni-	.	.	.	.	.	.	.	.	.	.	.	.	.
!	!	!	!	!	!	!	!	!	!	!	!	!LO:TX:a:t=P:problem:# above	!	!	!
.	.	.	.	8c\	-mu-	-ni-	.	8A/	-mu-	-ni-	.	8f#X\	.	-ni-	.
=29-	=29	=29	=29	=29	=29	=29	=29	=29	=29	=29	=29	=29	=29	=29	=29
!	!	!	!	!LO:N:acc=#	!	!	!	!	!	!	!	!	!	!	!
!LO:N:vis=1	!	!	!	!	!	!	!	!	!	!	!	!LO:N:vis=1	!	!	!
0GG;	-it-	-um	.	0Bn;;	-it	-ae	.	0G;;	-it	-ae	.	0g;<	-it	-ae	.
*	*	*Xij	*	*	*	*Xij	*	*	*Xij	*Xij	*	*	*	*	*
=30-	=30	=30	=30	=30-	=30	=30	=30	=30-	=30	=30	=30	=30-	=30	=30	=30
.	.	.	.	.	.	.	.	.	.	.	.	.	.	.	.
!LO:PB:g=original	!	!	!	!LO:PB:g=original	!	!	!	!LO:PB:g=original	!	!	!	!LO:PB:g=original	!	!	!
==	==	==	==	==	==	==	==	==	==	==	==	==	==	==	==
*-	*-	*-	*-	*-	*-	*-	*-	*-	*-	*-	*-	*-	*-	*-	*-
!!!system-decoration: [(s1,s2,s3,s4)]
!!!RDF**kern: < = below
!!!ENC: Marta Chmielewska
!!!END: 2021-04-06
!!!ENC:Berenika Jozajtis
!!!END:2021-03-26
